X: 101
T: Araz Üste Buz Üste
C: (Anonim)
O: Turkey
F: http://compmusic.upf.edu/node/140
N: hisarbuselik--turku--curcuna--araz_uste--
N: makam= hisarbuselik
N: form= turku
N: usul= curcuna = 10/8
M: 10/8
L: 1/16
K: C _1/4B   
Q: 1/4=236
%%MIDI tuningsystem comma53
f6f4e4c2 c2d2  | e8-e2c3=BA6  | e^de2 c4 =B2=d^c d2B4A2  | 
w:  ARANAĞME  |   |   | 
c2=B2 A2A2 ^G2A2 B2c2 d2e2  | f6f4e4c2 c2d2  | \
w:   |  ARANAĞME  | 
e8-e2c3=BA6  | 
w:   | 
e^de2 c4 =B2=d^c d2B4A2  | c2=B2 A2A2 ^G2A4B2 c2d2  | \
w:   |   | 
e4 e2e4e4e6  | 
w:  *  A raz  üs te   | 
a4 a6{=b}a3^gfe f4  | ^g4 a/=b/a/g/a4f4g/a/g/f/ g4  | \
w:  buz  üs *  te    |  Ke bap  *  *  *  *  ya nar   | 
e4 f3e ^d2e4A=B cdef  | 
w:  köz  üs *  *  te   SAZ  | 
e4 e2e4e4e6  | a4 a6{=b}a3^gfe f4  | \
w:  *  A raz  üs te   |  buz  üs *  te    | 
^g4 a/=b/a/g/a4f4g/a/g/f/ g4  | 
w:  Ke bap  *  *  *  *  ya nar   | 
e4 {g}f3e ^d2e4=de ^3/4fgfa  | g4 e2^3/4f4gf g2e4d2  | \
w:  köz  *  üs *  *  te   SAZ  |  *  Goy  me ni  *  *  gö  | 
fef2 d6c4=B2 A4  | 
w:  tür *  *  sün ler  ba lam    | 
e^de2 c4 =B2=d^c d2B4A2  | c2=B2 {c}A4 ^G2e4de ^3/4fgfg  | 
w:  Bir  *  *  e *  lâ  *  *  göz   |  kız  *  *  üs *  te   SAZ  | 
g4 e2^3/4f4gf g2e4d2  | fef2 d6c4=B2 A4  | \
w:  *  Goy  me ni  *  *  gö  |  tür *  *  sün ler  ba lam    | 
e^de2 c4 =B2=d^c d2B4A2  | 
w:  Bir  *  *  e *  lâ  *  *  göz   | 
c2=B2 {c}A4 ^G2A4E/^1/4F/G/A/ B/c/d/e/f2  | \
w:  kız  *  *  üs *  te   SAZ  | 
f6f4e4c2 c2d2  | e8-e2c3=BA6  | 
w:  Ay  *  lâ çin   |  can  la *  çin   | 
e^de2 c4 =B2=d^c d2B4A2  | c2=B2 A2A2 ^G2A4E/^1/4F/G/A/ B/c/d/e/f2  | 
w:  Can  *  *  sa *  na  *  *  kur  |  ban  *  *  lâ *  çin   SAZ  | 
f6f4e4c2 c2d2  | e8-e2c3=BA6  | e^de2 c4 =B2=d^c d2B4A2  | 
w:  Ay  *  lâ çin   |  can  la *  çin   |  Can  *  *  sa *  na  *  *  kur  | 
c2=B2 A2A2 ^G2A8-A2  | f6f4e4c2 c2d2  | \
w:  ban  *  *  lâ *  çin    |  ARANAĞME  | 
e8-e2c3=BA6  | e^de2 c4 =B2=d^c d2B4A2  | 
w:   |   | 
c2=B2 A2A2 ^G2A2 B2c2 d2e2  | f6f4e4c2 c2d2  | \
w:   |  ARANAĞME  | 
e8-e2c3=BA6  | 
w:   | 
e^de2 c4 =B2=d^c d2B4A2  | c2=B2 A2A2 ^G2A4B2 c2d2  | \
w:   |   | 
e4 e2e4e4e6  | 
w:  *  A raz  üs te   | 
a4 a6{=b}a3^gfe f4  | ^g4 a/=b/a/g/a4f4g/a/g/f/ g4  | \
w:  buz  üs *  te    |  Ke bap  *  *  *  *  ya nar   | 
e4 f3e ^d2e4A=B cdef  | 
w:  köz  üs *  *  te   SAZ  | 
e4 e2e4e4e6  | a4 a6{=b}a3^gfe f4  | \
w:  *  A raz  üs te   |  buz  üs *  te    | 
^g4 a/=b/a/g/a4f4g/a/g/f/ g4  | 
w:  Ke bap  *  *  *  *  ya nar   | 
e4 {g}f3e ^d2e4=de ^3/4fgfa  | g4 e2^3/4f4gf g2e4d2  | \
w:  köz  *  üs *  *  te   SAZ  |  *  Goy  me ni  *  *  gö  | 
fef2 d6c4=B2 A4  | 
w:  tür *  *  sün ler  ba lam    | 
e^de2 c4 =B2=d^c d2B4A2  | c2=B2 {c}A4 ^G2e4de ^3/4fgfg  | 
w:  Bir  *  *  e *  lâ  *  *  göz   |  kız  *  *  üs *  te   SAZ  | 
g4 e2^3/4f4gf g2e4d2  | fef2 d6c4=B2 A4  | \
w:  *  Goy  me ni  *  *  gö  |  tür *  *  sün ler  ba lam    | 
e^de2 c4 =B2=d^c d2B4A2  | 
w:  Bir  *  *  e *  lâ  *  *  göz   | 
c2=B2 {c}A4 ^G2A4E/^1/4F/G/A/ B/c/d/e/f2  | \
w:  kız  *  *  üs *  te   SAZ  | 
f6f4e4c2 c2d2  | e8-e2c3=BA6  | 
w:  Ay  *  lâ çin   |  can  la *  çin   | 
e^de2 c4 =B2=d^c d2B4A2  | c2=B2 A2A2 ^G2A4E/^1/4F/G/A/ B/c/d/e/f2  | 
w:  Can  *  *  sa *  na  *  *  kur  |  ban  *  *  lâ *  çin   SAZ  | 
f6f4e4c2 c2d2  | e8-e2c3=BA6  | e^de2 c4 =B2=d^c d2B4A2  | 
w:  Ay  *  lâ çin   |  can  la *  çin   |  Can  *  *  sa *  na  *  *  kur  | 
c2=B2 A2A2 ^G2A8-A2  | |


